X:68
T:Payne's 5th Sett Of Quadrilles,3. Le4.068
B:L.Leadley MS#4 c1850
Z:Village Music Project, 2016 Steve Mansfield
M:6/8
L:1/8
Q:3/8=90
K:C
e | d2f B2d | cec G2e | def B2d | c3 c2e |
d2f B2d | cec G2e | def B2d | c3 H ||
(3c/d/e/ | f2f {fg}agf | e2e {ef}gfe | d2d {de}fed | c3 cde |
f2f {fg}agf | e2e {ef}gfe | d2d {de}fed | c3 !segno! ||
egc' | b2b bab | c'3 g2g | gfe c'ge | b2b bab |
c'3 g2g | gfg fed | c3 c2 !segno! |]

